public/svgs/light/lari-sign.svg

<svg xmlns="http://www.w3.org/2000/svg" viewBox="0 0 384 512"><!-- Font Awesome Pro 6.0.0-alpha2 by @fontawesome - https://fontawesome.com License - https://fontawesome.com/license (Commercial License) --><path d="M384 464C384 472.844 376.844 480 368 480H16C7.156 480 0 472.844 0 464S7.156 448 16 448H86.094C34.268 413.584 0 354.746 0 288C0 204.592 53.549 133.643 128 107.201V48C128 39.156 135.156 32 144 32S160 39.156 160 48V98.891C170.432 97.129 181.076 96 192 96S213.568 97.129 224 98.891V48C224 39.156 231.156 32 240 32S256 39.156 256 48V107.201C330.451 133.643 384 204.592 384 288C384 296.844 376.844 304 368 304S352 296.844 352 288C352 222.559 312.406 166.322 256 141.562V272C256 280.844 248.844 288 240 288S224 280.844 224 272V131.234C213.656 129.125 202.957 128 192 128S170.344 129.125 160 131.234V272C160 280.844 152.844 288 144 288S128 280.844 128 272V141.562C71.594 166.322 32 222.559 32 288C32 376.219 103.781 448 192 448H368C376.844 448 384 455.156 384 464Z"/></svg>

<svg xmlns="http://www.w3.org/2000/svg" viewBox="0 0 384 512"><!--! Font Awesome Pro 6.5.1 by @fontawesome - https://fontawesome.com License - https://fontawesome.com/license (Commercial License) Copyright 2023 Fonticons, Inc. --><path d="M144 32c8.8 0 16 7.2 16 16V98.7c10.4-1.7 21.1-2.7 32-2.7s21.6 .9 32 2.7V48c0-8.8 7.2-16 16-16s16 7.2 16 16v58.9c62.8 22.2 110.7 76.2 124.2 142.7c1.8 8.7-3.8 17.1-12.5 18.9s-17.1-3.8-18.9-12.5c-10.5-51.6-45.7-94.1-92.8-114.7L256 272c0 8.8-7.2 16-16 16s-16-7.2-16-16l0-140.8c-10.3-2.1-21-3.2-32-3.2s-21.7 1.1-32 3.2L160 272c0 8.8-7.2 16-16 16s-16-7.2-16-16l0-130.7C71.5 166 32 222.4 32 288c0 88.4 71.6 160 160 160H368c8.8 0 16 7.2 16 16s-7.2 16-16 16H192 16c-8.8 0-16-7.2-16-16s7.2-16 16-16H85.8C34.1 413.6 0 354.8 0 288c0-83.6 53.4-154.7 128-181.1V48c0-8.8 7.2-16 16-16z"/></svg>
